src/xmb/monochrome/Sony - PlayStation Vita (PSN) (Updates).svg

<svg xmlns="http://www.w3.org/2000/svg" xml:space="preserve" id="svg5145" x="0" y="0" version="1.1" viewBox="0 0 64 64"><style>.st0{fill:#fff}</style><path d="M55.27 22.77C52.48 20 48 20 48 20H16s-4.48 0-7.28 2.77c0 0-3.72 2.77-3.72 7.39V33c0 .63.08 1.26.24 1.87.39 1.47 1.24 4.14 2.55 5.45 0 0 .93 1.85 3.72 2.77 2.8.91 4.66.91 4.66.91h31.66s1.86 0 4.66-.92 3.72-2.77 3.72-2.77c1.31-1.3 2.16-3.98 2.55-5.45Q59 33.945 59 33v-3c0-4.61-3.72-7.23-3.73-7.23M13.25 27l.05.11c.26.56.26 1.23 0 1.79l-.05.1h-1.41l-.77-.82c-.09-.1-.09-.26 0-.35l.77-.83zm-1.75 6c.83 0 1.5.67 1.5 1.5s-.67 1.5-1.5 1.5-1.5-.67-1.5-1.5.67-1.5 1.5-1.5m-1.9-2.2-.1-.05v-1.41l.82-.77c.1-.09.26-.09.35 0l.82.77v1.41l-.1.05c-.56.27-1.22.27-1.79 0m-.1-5.55.1-.05c.56-.26 1.23-.26 1.79 0l.1.05v1.41l-.82.77c-.1.09-.26.09-.35 0l-.82-.77zM7.75 29l-.05-.1c-.26-.56-.26-1.23 0-1.79l.05-.11h1.41l.77.82c.09.1.09.26 0 .35l-.77.83zM9 38c0-.55.9-1 2-1s2 .45 2 1-.9 1-2 1-2-.45-2-1m1 3s3 0 4 2c0 0-3 0-4-2m38 0H16V22h32zm6-16c.55 0 1 .45 1 1s-.45 1-1 1-1-.45-1-1 .45-1 1-1m-2 2.04c.55 0 1 .45 1 1s-.45 1-1 1-1-.45-1-1 .45-1 1-1m2 7.46c0 .83-.67 1.5-1.5 1.5s-1.5-.67-1.5-1.5.67-1.5 1.5-1.5 1.5.67 1.5 1.5M50.5 24c.28 0 .5.22.5.5s-.22.5-.5.5-.5-.22-.5-.5.22-.5.5-.5m.5 14c.55 0 1 .22 1 .5s-.45.5-1 .5-1-.22-1-.5.45-.5 1-.5m-1 5c0-2 4-2 4-2-1 2-4 2-4 2m4-4c-.55 0-1-.22-1-.5s.45-.5 1-.5 1 .22 1 .5-.45.5-1 .5m0-8c-.55 0-1-.45-1-1s.45-1 1-1 1 .45 1 1-.45 1-1 1m2-2c-.55 0-1-.45-1-1s.45-1 1-1 1 .45 1 1-.45 1-1 1" class="st0"/><path d="M30.08 31.07v-5.14c0-.47.38-.85.85-.85h1.71c.47 0 .85.38.85.85v5.14h2.57l-4.29 5.14-4.29-5.14zm5.57 6.86h-7.71c-.27 0-.44-.17-.44-.44s.17-.44.44-.44h7.71c.27 0 .44.17.44.44-.01.28-.19.44-.44.44m.86-2.57h-.87v.85h-.85v-.85h-.86v-.85h.85v-.85h.85v.85h.87z" class="st0"/></svg>

<?xml version="1.0" encoding="utf-8"?>
<!-- Generator: Adobe Illustrator 26.3.1, SVG Export Plug-In . SVG Version: 6.00 Build 0)  -->
<svg version="1.1"
	 id="svg5145" xmlns:svg="http://www.w3.org/2000/svg" xmlns:dc="http://purl.org/dc/elements/1.1/" xmlns:rdf="http://www.w3.org/1999/02/22-rdf-syntax-ns#" xmlns:sodipodi="http://sodipodi.sourceforge.net/DTD/sodipodi-0.dtd" xmlns:inkscape="http://www.inkscape.org/namespaces/inkscape" xmlns:cc="http://creativecommons.org/ns#" inkscape:export-filename="/Users/margetts/Desktop/Icon Workshop/Monochrome Plus June/png/Sony - PlayStation Vita.png" inkscape:export-ydpi="360"
	 xmlns="http://www.w3.org/2000/svg" xmlns:xlink="http://www.w3.org/1999/xlink" x="0px" y="0px" viewBox="0 0 64 64"
	 style="enable-background:new 0 0 64 64;" xml:space="preserve">
<style type="text/css">
	.st0{fill:#FFFFFF;}
</style>
<path class="st0" d="M55.27,22.77C52.48,20,48,20,48,20H16c0,0-4.48,0-7.28,2.77c0,0-3.72,2.77-3.72,7.39V33
	c0,0.63,0.08,1.26,0.24,1.87c0.39,1.47,1.24,4.14,2.55,5.45c0,0,0.93,1.85,3.72,2.77C14.31,44,16.17,44,16.17,44h31.66
	c0,0,1.86,0,4.66-0.92c2.8-0.92,3.72-2.77,3.72-2.77c1.31-1.3,2.16-3.98,2.55-5.45C58.92,34.25,59,33.63,59,33v-3
	C59,25.39,55.28,22.77,55.27,22.77z M13.25,27l0.05,0.11c0.26,0.56,0.26,1.23,0,1.79L13.25,29h-1.41l-0.77-0.82
	c-0.09-0.1-0.09-0.26,0-0.35L11.84,27H13.25z M11.5,33c0.83,0,1.5,0.67,1.5,1.5c0,0.83-0.67,1.5-1.5,1.5S10,35.33,10,34.5
	C10,33.67,10.67,33,11.5,33z M9.6,30.8l-0.1-0.05v-1.41l0.82-0.77c0.1-0.09,0.26-0.09,0.35,0l0.82,0.77v1.41l-0.1,0.05
	C10.83,31.07,10.17,31.07,9.6,30.8z M9.5,25.25l0.1-0.05c0.56-0.26,1.23-0.26,1.79,0l0.1,0.05v1.41l-0.82,0.77
	c-0.1,0.09-0.26,0.09-0.35,0L9.5,26.66V25.25z M7.75,29L7.7,28.9c-0.26-0.56-0.26-1.23,0-1.79L7.75,27h1.41l0.77,0.82
	c0.09,0.1,0.09,0.26,0,0.35L9.16,29H7.75z M9,38c0-0.55,0.9-1,2-1s2,0.45,2,1s-0.9,1-2,1S9,38.55,9,38z M10,41c0,0,3,0,4,2
	C14,43,11,43,10,41z M48,41H16V22h32V41z M54,25c0.55,0,1,0.45,1,1s-0.45,1-1,1s-1-0.45-1-1S53.45,25,54,25z M52,27.04
	c0.55,0,1,0.45,1,1s-0.45,1-1,1s-1-0.45-1-1S51.45,27.04,52,27.04z M54,34.5c0,0.83-0.67,1.5-1.5,1.5S51,35.33,51,34.5
	c0-0.83,0.67-1.5,1.5-1.5S54,33.67,54,34.5z M50.5,24c0.28,0,0.5,0.22,0.5,0.5c0,0.28-0.22,0.5-0.5,0.5S50,24.78,50,24.5
	C50,24.22,50.22,24,50.5,24z M51,38c0.55,0,1,0.22,1,0.5c0,0.28-0.45,0.5-1,0.5s-1-0.22-1-0.5C50,38.22,50.45,38,51,38z M50,43
	c0-2,4-2,4-2C53,43,50,43,50,43z M54,39c-0.55,0-1-0.22-1-0.5c0-0.28,0.45-0.5,1-0.5s1,0.22,1,0.5C55,38.78,54.55,39,54,39z M54,31
	c-0.55,0-1-0.45-1-1s0.45-1,1-1s1,0.45,1,1S54.55,31,54,31z M56,29c-0.55,0-1-0.45-1-1s0.45-1,1-1s1,0.45,1,1S56.55,29,56,29z"/>
<g>
</g>
<sodipodi:namedview  bordercolor="#666666" borderopacity="1" gridtolerance="10" guidetolerance="10" id="namedview5147" inkscape:current-layer="g5153" inkscape:cx="6.9736842" inkscape:cy="40" inkscape:pageopacity="0" inkscape:pageshadow="2" inkscape:window-height="1005" inkscape:window-maximized="1" inkscape:window-width="1676" inkscape:window-x="4" inkscape:window-y="1" inkscape:zoom="3.8" objecttolerance="10" pagecolor="#808080" showgrid="false">
	</sodipodi:namedview>
<g id="g5153" transform="matrix(1.25,0,0,-1.25,0,64)" inkscape:label="Sony - PlayStation Vita" inkscape:groupmode="layer">
	<g id="g5155" transform="scale(0.8,0.8)">
	</g>
</g>
<g>
	<path class="st0" d="M30.08,31.07v-5.14c0-0.47,0.38-0.85,0.85-0.85h1.71c0.47,0,0.85,0.38,0.85,0.85v5.14h2.57l-4.29,5.14
		l-4.29-5.14C27.51,31.07,30.08,31.07,30.08,31.07z M35.65,37.93h-7.71c-0.27,0-0.44-0.17-0.44-0.44c0-0.27,0.17-0.44,0.44-0.44
		h7.71c0.27,0,0.44,0.17,0.44,0.44C36.08,37.77,35.9,37.93,35.65,37.93z M36.51,35.36h-0.87v0.85h-0.85v-0.85h-0.86v-0.85h0.85
		v-0.85h0.85v0.85h0.87L36.51,35.36L36.51,35.36z"/>
</g>
<g>
</g>
</svg>
